X:588
T:Lord MacDonald
C:Joe Buchanan's Scottish Tome - Page 161.3
I:161 3
Z:Carl Allison
R:Reel
L:1/8
M:4/4
K:G
B |: "G"d2> e2 dBfB | "G"dBgB "D7"gAAB | "G"d^cde dBgB | "D7"A/B/c "G"(BA) BG G :|
B |1 "G"DGBG AGBG | "G"DGBG "C"AGEG | "G"DGBG AGBG | "D7"DEDC "G"B,G,G,G |
"G"DGBG AGBG | "G"DGBG "C"AGEG | "G"BAGF "Em"GFED | "Am"EF"D7"GA "B"BG G |]
d |:2 "G"dgbg agbg | "G"dgbg "C"ageg | "G"dgbg agbg | "D7"dcBA BGGd |
"G"dgbg agbg | "G"dgbg "C"ageg | "G"bagf "Em"gfed | "Am"ef"D7"ga "G"bg g ||
%
W:Refer to: Making Music with ABC 2
W:A practical guide to modern ABC notation by Guido Gonzato
W:Section 2.2. Music Properties
W:"|:" added to each section start because this particular tune will not play
W:due to abcm2ps and abcMIDI incompatibilities.
W:

